X:132
T:12th of August,The. RH.132
R:Quadrille
S:Rev.R.Harrison’s MS,c1815,Cumbria
N:The start of the bird mythering season.
O:England
A:Temple Sowerby,Cumbria
Z:vmp.Simon Wilson. Review PJH, 2008.
M:6/8
L:1/8
Q:3/8=120
K:F
c|A2G A2G|FcA F2c|d2c d2e|fed c2c|\
fed cBA|dcB AGF|F2E G2F|FcA F2:|!
c|f2c d2c|def c2A|f2c d2c|fed c3|\
f2c d2c|def c2A|f2c g2c|caf ” DC”c2|]

